X:1
T:Title
%%score { ( 1 3 ) | ( 2 4 ) }
L:1/8
M:4/4
K:A
V:1 treble nm="Grand Piano"
V:3 treble 
V:2 bass 
V:4 bass 
V:1
 z4 z2[Q:1/4=100] [CE]2 | [Ec]3 [DB] [Fd]>[Ec] [DB]>[CA] | [DB]2 [FA]2 [EG]2 F2 | z4 z2 [CA]2 | %4
 B6 E2 | [Ec]3 [DB] [Fd]>[Ec] [DB]>[CA] | [DB]2 [FA]2 [EG]2 F2 | E3 A A2 G2 | [CA]6 z2 | %9
 B3 c d2 B2 | F2 G2 [CA]2 [CE]2 | [DF]3 [FA] [Fd]2 F2 | E2 [Ec]2 c2 B2 | c3 e d2 c2 | %14
 [FB]2 [Fd]2 [EFc]2 [DFB]2 | A6 z2 | [A,CA]6 z2 | [Ec]4- [Ec]>B [CA]>c | e6 z2 | %19
 [Ec]4- [Ec]>c B>A | B6 z2 | [Ec]3 [DB] [Fd]2 [Ec]2 | [DB]2 [FA]2 [EG]2 F2 | E2 z2 D>E [DF]>G | %24
[M:7/8] A2- [DA-]2 [CA]3 |] %25
V:2
 z4 z2 [A,,A,]2 | [A,,A,]3 [A,,A,] [A,,A,]>[A,,A,] [A,,E,]>[A,,E,] | %2
 [D,F,]2 [D,A,]2 [D,A,]2 [D,A,D]2 | [C,A,]3 [C,A,] [B,,E,]2 .[A,,E,]2 | [E,G,E]6 [E,G,]2 | %5
 [A,,A,]3 [A,,A,] [A,,A,]>[A,,A,] [A,,E,]>[A,,E,] | [D,F,]2 [D,A,]2 [D,A,]2 [D,A,D]2 | %7
 [E,A,C]3 [E,CE] [E,B,D]2 [E,D]2 | [A,,E,]6 z2 | [E,G,E]3 [E,A,E] [E,B,E]2 [E,G,E]2 | %10
 [E,G,D]2 [E,D]2 [A,,E,]2 [A,,A,]2 | [D,A,]3 [D,A,] [D,A,]2 [D,A,D]2 | %12
 [C,A,]2 [A,,A,]2 [E,A,E]2 [E,G,E]2 | [A,E]3 [A,CE] [G,B,E]2 [A,E]2 | [D,A,]2 [B,,B,]2 C,2 D,2 | %15
 [E,CE]2 [E,=C]2 [E,B,]>[E,B,D] [E,B,D]>[E,B,D] | A,,6 z2 | A,2 A,2 z z/ D/ z z/ E/ | %18
 E2- [A,E-]2 [A,E]2 z2 | A,2 A,2 z z/ E/ ^D>D | E2- [E,E]2 [E,G,]2 [E,G,D]2 | %21
 [A,,A,]3 [A,,A,] [A,,A,]2 [A,,A,]2 | [D,F,]2 [D,A,]2 [D,A,]2 [D,A,D]2 | %23
 [E,A,C]2 [E,C]2 z z/ D/ z z/ D/ |[M:7/8] E,2 z z z z2 |] %25
V:3
 x8 | x8 | x8 | E3 [EA] [DG]2 z A, | x8 | x8 | x8 | x8 | x8 | x8 | x8 | x8 | x8 | x8 | x8 | %15
 z2 ^D2 =D>G F>G | x8 | x8 | z2 C2 C2 z2 | x8 | z2 G,2 D2 E2 | x8 | x8 | z2 E4 z2 | %24
[M:7/8] C2 z z z z2 |] %25
V:4
 x8 | x8 | x8 | x8 | x8 | x8 | x8 | x8 | x8 | x8 | x8 | x8 | x8 | x8 | x8 | x8 | x8 | z4 A,2 A,2 | %18
 [A,C]2 z2 z4 | z4 A,2 [F,A,]2 | [E,G,]2 z2 z4 | x8 | x8 | z4 [E,B,]2 E,2 | %24
[M:7/8] A,,2- [A,,-F,]2 [A,,E,]3 |] %25

